SVG_Azure_All/Network Security Group (classic).svg

<?xml version="1.0" encoding="UTF-8" standalone="no"?>
<!-- Generated by Microsoft Visio, SVG Export Network Security Group (classic).svg Page-1 -->

<svg
   xmlns:dc="http://purl.org/dc/elements/1.1/"
   xmlns:cc="http://creativecommons.org/ns#"
   xmlns:rdf="http://www.w3.org/1999/02/22-rdf-syntax-ns#"
   xmlns:svg="http://www.w3.org/2000/svg"
   xmlns="http://www.w3.org/2000/svg"
   xmlns:sodipodi="http://sodipodi.sourceforge.net/DTD/sodipodi-0.dtd"
   xmlns:inkscape="http://www.inkscape.org/namespaces/inkscape"
   width="0.59055257in"
   height="0.78745294in"
   viewBox="0 0 42.519803 56.696899"
   xml:space="preserve"
   class="st5"
   version="1.1"
   id="svg42"
   sodipodi:docname="Network Security Group (classic).svg"
   style="font-size:12px;overflow:visible;color-interpolation-filters:sRGB;fill:none;fill-rule:evenodd;stroke-linecap:square;stroke-miterlimit:3"
   inkscape:version="0.92.5 (2060ec1f9f, 2020-04-08)"><metadata
   id="metadata48"><rdf:RDF><cc:Work
       rdf:about=""><dc:format>image/svg+xml</dc:format><dc:type
         rdf:resource="http://purl.org/dc/dcmitype/StillImage" /></cc:Work></rdf:RDF></metadata><defs
   id="defs46" /><sodipodi:namedview
   pagecolor="#ffffff"
   bordercolor="#666666"
   borderopacity="1"
   objecttolerance="10"
   gridtolerance="10"
   guidetolerance="10"
   inkscape:pageopacity="0"
   inkscape:pageshadow="2"
   inkscape:window-width="640"
   inkscape:window-height="480"
   id="namedview44"
   showgrid="false"
   inkscape:zoom="1.7193066"
   inkscape:cx="28.346323"
   inkscape:cy="23.279613"
   inkscape:window-x="0"
   inkscape:window-y="0"
   inkscape:window-maximized="0"
   inkscape:current-layer="svg42" />
	<style
   type="text/css"
   id="style2">
	<![CDATA[
		.st1 {fill:#0072c6;stroke:none;stroke-linecap:butt;stroke-width:12.24}
		.st2 {fill:#3999c6;fill-opacity:0.4;stroke:none;stroke-linecap:butt;stroke-width:12.24}
		.st3 {fill:#ffffff;fill-opacity:0.3;stroke:none;stroke-linecap:butt;stroke-width:12.24}
		.st4 {fill:#ffffff;fill-opacity:0.7;stroke:none;stroke-linecap:butt;stroke-width:12.24}
		.st5 {fill:none;fill-rule:evenodd;font-size:12px;overflow:visible;stroke-linecap:square;stroke-miterlimit:3}
	]]>
	</style>

	<g
   id="g40"
   transform="translate(-12.240156,-12.2374)">
		<title
   id="title4">Page-1</title>
		<g
   id="group2844-1"
   transform="translate(12.24,-34.0157)">
			<title
   id="title6">Network Security Group (classic)</title>
			<g
   id="group2845-2">
				<title
   id="title8">Sheet.2845</title>
				<g
   id="shape2846-3">
					<title
   id="title10">Sheet.2846</title>
					<path
   d="M 36.25,53.07 C 23.47,51.71 21.26,46.26 21.26,46.26 c 0,0 -2.9,7.04 -21.26,7.04 v 29.08 c 0,3.53 1.97,6.82 4.76,9.66 6.28,6.48 16.5,10.91 16.5,10.91 0,0 21.26,-9.09 21.26,-20.57 V 53.3 c -2.32,0 -4.41,-0.11 -6.27,-0.23 z"
   class="st1"
   id="path12"
   inkscape:connector-curvature="0"
   style="fill:#0072c6;stroke:none;stroke-width:12.23999977;stroke-linecap:butt" />
				</g>
				<g
   id="shape2847-5"
   transform="translate(0,-10.9069)">
					<title
   id="title15">Sheet.2847</title>
					<path
   d="M 26.6,75.91 36.25,63.98 C 23.47,62.62 21.26,57.16 21.26,57.16 c 0,0 -2.9,7.05 -21.26,7.05 v 29.08 c 0,3.52 1.97,6.82 4.76,9.66 l 7.21,-8.86 z"
   class="st2"
   id="path17"
   inkscape:connector-curvature="0"
   style="fill:#3999c6;fill-opacity:0.4;stroke:none;stroke-width:12.23999977;stroke-linecap:butt" />
				</g>
				<g
   id="group2848-7"
   transform="translate(4.29844,-5.68065)">
					<title
   id="title20">Sheet.2848</title>
					<g
   id="shape2849-8"
   transform="translate(0.116174)">
						<title
   id="title22">Sheet.2849</title>
						<path
   d="m 0,79.66 v 6.93 c 0,2.84 1.63,5.45 3.83,7.72 5,5.23 13.13,8.64 13.13,8.64 V 79.66 Z"
   class="st3"
   id="path24"
   inkscape:connector-curvature="0"
   style="fill:#ffffff;fill-opacity:0.3;stroke:none;stroke-width:12.23999977;stroke-linecap:butt" />
					</g>
					<g
   id="shape2850-10">
						<title
   id="title27">Sheet.2850</title>
						<path
   d="m 16.96,102.95 c 0,0 16.96,-7.27 16.96,-16.36 V 79.66 H 16.96 Z m 0,-45.22 c 0,0 -2.32,5.68 -16.96,5.68 v 16.25 h 16.96 z"
   class="st4"
   id="path29"
   inkscape:connector-curvature="0"
   style="fill:#ffffff;fill-opacity:0.7;stroke:none;stroke-width:12.23999977;stroke-linecap:butt" />
					</g>
					<g
   id="shape2851-12"
   transform="translate(16.9614,-23.2907)">
						<title
   id="title32">Sheet.2851</title>
						<path
   d="M 11.85,86.47 C 1.74,85.34 0,81.13 0,81.13 v 21.82 H 16.96 V 86.7 c -1.86,0 -3.6,-0.11 -5.11,-0.23 z"
   class="st3"
   id="path34"
   inkscape:connector-curvature="0"
   style="fill:#ffffff;fill-opacity:0.3;stroke:none;stroke-width:12.23999977;stroke-linecap:butt" />
					</g>
				</g>
			</g>
		</g>
	</g>
</svg>

<?xml version="1.0" encoding="UTF-8" standalone="no"?>
<!DOCTYPE svg PUBLIC "-//W3C//DTD SVG 1.1//EN" "http://www.w3.org/Graphics/SVG/1.1/DTD/svg11.dtd">
<!-- Generated by Microsoft Visio, SVG Export Network Security Group (classic).svg Page-1 -->
<svg xmlns="http://www.w3.org/2000/svg" xmlns:xlink="http://www.w3.org/1999/xlink" xmlns:ev="http://www.w3.org/2001/xml-events"
		width="0.930551in" height="1.42984in" viewBox="0 0 66.9997 102.949" xml:space="preserve" color-interpolation-filters="sRGB"
		class="st5">
	<style type="text/css">
	<![CDATA[
		.st1 {fill:#0072c6;stroke:none;stroke-linecap:butt;stroke-width:12.24}
		.st2 {fill:#3999c6;fill-opacity:0.4;stroke:none;stroke-linecap:butt;stroke-width:12.24}
		.st3 {fill:#ffffff;fill-opacity:0.3;stroke:none;stroke-linecap:butt;stroke-width:12.24}
		.st4 {fill:#ffffff;fill-opacity:0.7;stroke:none;stroke-linecap:butt;stroke-width:12.24}
		.st5 {fill:none;fill-rule:evenodd;font-size:12px;overflow:visible;stroke-linecap:square;stroke-miterlimit:3}
	]]>
	</style>

	<g>
		<title>Page-1</title>
		<g id="group2818-1" transform="translate(12.24,-34.0157)">
			<title>Network Security Group (classic)</title>
			<g id="group2819-2">
				<title>Sheet.2819</title>
				<g id="shape2820-3">
					<title>Sheet.2820</title>
					<path d="M36.25 53.07 C23.47 51.71 21.26 46.26 21.26 46.26 C21.26 46.26 18.36 53.3 0 53.3 L0 82.38 C0 85.91 1.97
								 89.2 4.76 92.04 C11.04 98.52 21.26 102.95 21.26 102.95 C21.26 102.95 42.52 93.86 42.52 82.38 L42.52
								 53.3 C40.2 53.3 38.11 53.19 36.25 53.07 Z" class="st1"/>
				</g>
				<g id="shape2821-5" transform="translate(0,-10.9069)">
					<title>Sheet.2821</title>
					<path d="M26.6 75.91 L36.25 63.98 C23.47 62.62 21.26 57.16 21.26 57.16 C21.26 57.16 18.36 64.21 0 64.21 L0 93.29
								 C0 96.81 1.97 100.11 4.76 102.95 L11.97 94.09 L26.6 75.91 Z" class="st2"/>
				</g>
				<g id="group2822-7" transform="translate(4.29844,-5.68065)">
					<title>Sheet.2822</title>
					<g id="shape2823-8" transform="translate(0.116174,0)">
						<title>Sheet.2823</title>
						<path d="M0 79.66 L0 86.59 C0 89.43 1.63 92.04 3.83 94.31 C8.83 99.54 16.96 102.95 16.96 102.95 L16.96 79.66
									 L0 79.66 Z" class="st3"/>
					</g>
					<g id="shape2824-10">
						<title>Sheet.2824</title>
						<path d="M16.96 102.95 C16.96 102.95 33.92 95.68 33.92 86.59 L33.92 79.66 L16.96 79.66 L16.96 102.95 ZM16.96
									 57.73 C16.96 57.73 14.64 63.41 0 63.41 L0 79.66 L16.96 79.66 L16.96 57.73 Z" class="st4"/>
					</g>
					<g id="shape2825-12" transform="translate(16.9614,-23.2907)">
						<title>Sheet.2825</title>
						<path d="M11.85 86.47 C1.74 85.34 0 81.13 0 81.13 L0 102.95 L16.96 102.95 L16.96 86.7 C15.1 86.7 13.36 86.59
									 11.85 86.47 Z" class="st3"/>
					</g>
				</g>
			</g>
		</g>
	</g>
</svg>
